X:371
T:Stottycake Polka
C:Andy Turner
M:4/4
K:G
g2 d2 B3 A | GABc d2 d2 | GABc d2Bd | c2 AB cdef |
g2 d2 B3 A | GABc d2 Bd | c2 cc B2 BB | A2 dd e2 f2 |
g2 d2 B3 A | GABc d2 d2 | GABc d2Bd | c2 AB cdef |
g2 d2 B3 A | GABc d2 Bd | c2 cc B2 BB | A2 AA A4 ||
G2 Bc d2 d2 | GABc d2 d2 | A2 cd e3 f | g2 e2 e2 d2 |
G2 Bc d2 d2 | GABc d2 dd | g2 g2 f2 ff | e8 |
G2 Bc d2 d2 | GABc d2 d2 | A2 cd e3 f | g2 e2 e2 d2 |
G2 Bc d2 d2 | GABc d2 dd | g2 g2 f2 ff | e8 ||
